packages/ui-icons/svg/Line/wordpress.svg

<svg viewBox="0 0 1920 1920" version="1.1" xmlns="http://www.w3.org/2000/svg">
    <path d="M1595.88141,168.918588 C1780.87906,168.918588 1801.77318,378.763294 1801.77318,378.763294 C1813.97082,451.158588 1805.38729,574.264471 1770.60141,682.688 C1679.45788,964.928 1454.14024,1472.71153 1366.83671,1666.06682 C1320.41788,1712.03388 1266.99671,1719.93976 1235.93788,1719.93976 C1220.12612,1719.93976 1210.18729,1717.79388 1210.18729,1717.79388 L999.890824,1156.36329 L759.100235,1719.488 C668.069647,1717.22918 615.326118,1662.33976 615.326118,1662.33976 L256.286118,535.638588 C256.286118,535.638588 242.281412,479.732706 162.093176,479.732706 L112.963765,479.732706 L145.603765,394.800941 L604.144941,394.800941 L604.144941,479.732706 C604.144941,479.732706 558.629647,516.438588 569.359059,567.262118 C580.088471,617.972706 763.617882,1350.17035 763.617882,1350.17035 L940.596706,958.377412 L858.488471,699.290353 C826.977882,619.666824 801.114353,542.979765 780.446118,522.537412 C751.307294,491.026824 698.337882,479.732706 698.337882,479.732706 L698.337882,394.800941 L1263.38259,394.800941 L1263.38259,479.732706 L1169.98024,479.732706 C1169.98024,479.732706 1120.73788,489.671529 1116.44612,561.953882 C1115.54259,576.523294 1123.90024,627.120941 1123.90024,627.120941 L1343.11906,1347.91153 C1343.11906,1347.91153 1568.43671,934.433882 1571.712,844.306824 C1574.98729,754.405647 1540.08847,607.243294 1441.71671,548.400941 C1284.38965,453.643294 1323.91906,265.031529 1445.44376,198.396235 C1497.28376,170.048 1543.36376,168.918588 1595.88141,168.918588 Z M1307.20376,583.864471 C1328.66259,607.017412 1354.30024,627.572706 1383.43906,645.078588 C1431.21318,673.652706 1461.36847,770.782118 1458.77082,840.240941 C1454.70494,867.008 1418.45082,949.680941 1370.33788,1048.84329 L1234.13082,601.144471 C1233.792,598.772706 1233.34024,595.836235 1232.77553,592.673882 L1263.38259,592.673882 C1278.96847,592.673882 1293.76376,589.511529 1307.20376,583.864471 Z M692.464941,596.739765 C693.820235,597.417412 695.175529,598.095059 696.304941,598.772706 C705.340235,615.826824 721.490824,658.292706 733.801412,690.029176 L751.872,736.786824 L819.975529,951.262118 L794.337882,1007.73271 C752.323765,839.450353 712.229647,678.170353 692.464941,596.739765 Z M1913.69788,363.629176 C1901.50024,254.866824 1820.40847,55.9774118 1595.88141,55.9774118 C1542.912,55.9774118 1470.29082,55.9774118 1391.11906,99.3468235 C1319.85318,138.537412 1266.20612,205.398588 1241.02024,281.859765 L698.337882,281.859765 C681.622588,281.859765 665.584941,285.473882 651.241412,292.137412 C636.897882,285.473882 621.086118,281.859765 604.144941,281.859765 L145.603765,281.859765 C98.8461176,281.859765 57.0578824,310.659765 40.1167059,354.255059 L7.47670588,439.186824 C-5.85035294,473.859765 -1.21976471,513.050353 19.9002353,543.657412 C40.9072941,574.377412 75.8061176,592.673882 112.963765,592.673882 L155.994353,592.673882 L507.693176,1696.67388 C513.001412,1713.16329 521.923765,1728.18447 533.782588,1740.608 C542.479059,1749.64329 622.554353,1829.04094 756.389647,1832.42918 L759.100235,1832.42918 C804.276706,1832.42918 845.161412,1805.54918 863.006118,1763.87388 L993.001412,1459.94918 L1104.36141,1757.43624 C1118.02729,1793.80329 1149.42494,1820.57035 1187.26024,1828.47624 C1193.69788,1829.71859 1211.20376,1832.88094 1235.93788,1832.88094 C1315.33553,1832.88094 1390.10259,1802.048 1446.34729,1746.25506 C1456.17318,1736.54212 1464.192,1725.02212 1469.72612,1712.48565 C1561.77318,1508.62682 1785.73553,1003.44094 1878.12141,717.473882 C1915.05318,602.273882 1929.28376,460.871529 1913.69788,363.629176" stroke="none" stroke-width="1" fill-rule="evenodd"/>
</svg>

<svg viewBox="0 0 1920 1920" version="1.1" xmlns="http://www.w3.org/2000/svg">
    <path d="M1307.204 583.864c21.459 23.153 47.096 43.709 76.235 61.215 47.774 28.574 77.93 125.703 75.332 195.162-4.066 26.767-40.32 109.44-88.433 208.602L1234.13 601.144c-.339-2.371-.79-5.308-1.355-8.47h30.607c15.585 0 30.38-3.162 43.82-8.81zm463.397 98.824c-91.143 282.24-316.46 790.024-403.764 983.379-46.42 45.967-99.84 53.873-130.9 53.873-15.81 0-25.75-2.146-25.75-2.146l-210.296-561.43-240.79 563.124c-91.031-2.259-143.775-57.148-143.775-57.148L256.286 535.639s-14.005-55.906-94.193-55.906h-49.13l32.64-84.932h458.542v84.932s-45.515 36.706-34.786 87.53c10.73 50.71 194.259 782.907 194.259 782.907l176.979-391.793-82.109-259.087c-31.51-79.623-57.374-156.31-78.042-176.753-29.139-31.51-82.108-42.804-82.108-42.804V394.8h565.045v84.932h-93.403s-49.242 9.939-53.534 82.22c-.903 14.57 7.454 65.168 7.454 65.168l219.22 720.79s225.317-413.477 228.592-503.604c3.275-89.901-31.624-237.064-129.995-295.906-157.327-94.758-117.798-283.37 3.727-350.005 51.84-28.348 97.92-29.477 150.437-29.477 184.998 0 205.892 209.844 205.892 209.844 12.198 72.396 3.614 195.501-31.172 303.925zM696.305 598.773c9.035 17.054 25.186 59.52 37.496 91.256l18.071 46.758 68.104 214.475-25.638 56.47C752.324 839.45 712.23 678.17 692.465 596.74c1.355.677 2.71 1.355 3.84 2.033zm1217.393-235.144c-12.198-108.762-93.29-307.652-317.817-307.652-52.969 0-125.59 0-204.762 43.37-71.266 39.19-124.913 106.052-150.099 182.513H698.338c-16.715 0-32.753 3.614-47.097 10.277-14.343-6.663-30.155-10.277-47.096-10.277H145.604c-46.758 0-88.546 28.8-105.487 72.395l-32.64 84.932C-5.85 473.86-1.22 513.05 19.9 543.657c21.007 30.72 55.906 49.017 93.064 49.017h43.03l351.7 1104c5.307 16.49 14.23 31.51 26.089 43.934 8.696 9.035 88.771 88.433 222.607 91.821h2.71c45.177 0 86.061-26.88 103.906-68.555l129.995-303.925 111.36 297.487c13.666 36.367 45.064 63.134 82.9 71.04 6.437 1.243 23.943 4.405 48.677 4.405 79.398 0 154.165-30.833 210.41-86.626 9.825-9.713 17.844-21.233 23.378-33.77 92.047-203.858 316.01-709.044 408.395-995.011 36.932-115.2 51.163-256.602 35.577-353.845" stroke="none" stroke-width="1" fill-rule="evenodd"/>
</svg>
